X:595
T:
S:Vismelodi begagnad som schottis; uppt. efter Elisabet Olofsdotter från Burs.
R:schottis
O:Gotland, Burs
M:2/4
L:1/16
K:D
A2|d2d2 f2df|a2a2 f2d2|e2ef edcB|A4 z2 A2|g2gg g2g2|f4 f2f2|e2e2 fedc|d4
z2::Ad|f2Ac e2Ac|d2d2 A2 Ad|f2Ac A2c2|d2f2 A2 z A|d2d2 f2df|a6 ag|f2f2
f2ge|f2f2 gfed|e2e2 fedc|d4 z2:|

